X: 4408
T: Bond Store, The
R: reel
M: 4/4
K: Gmajor
GB~B2 dB~B2|cdec dBGB|c3 e dB~B2|AcBG AGED|
GB~B2 dB~B2|cdec dBGB|c3e dBGB|ADFA G4:|
dg3 edBe|d2BG AGEG|dg3 edBd|eaag a3-|
gd3 edBd|c2Bc AGEG|ce3 dBGB|ADFA G4:|

